; generated by Slic3r Prusa Edition 1.40.1+ on 2018-10-28 at 00:07:12

; 

; external perimeters extrusion width = 0.45mm
; perimeters extrusion width = 0.45mm
; infill extrusion width = 0.45mm
; solid infill extrusion width = 0.45mm
; top infill extrusion width = 0.40mm
; first layer extrusion width = 0.42mm

M107
M115 U3.3.1 ; tell printer latest fw version
M201 X1000 Y1000 Z1000 E9000 ; sets maximum accelerations, mm/sec^2
M203 X200 Y200 Z12 E120 ; sets maximum feedrates, mm/sec
M204 S1250 T1250 ; sets acceleration (S) and retract acceleration (T)
M205 X8 Y8 Z0.4 E1.5 ; sets the jerk limits, mm/sec
M205 S0 T0 ; sets the minimum extruding and travel feed rate, mm/sec
M83  ; extruder relative mode
M104 S215 ; set extruder temp
M140 S60 ; set bed temp
M190 S60 ; wait for bed temp
M109 S215 ; wait for extruder temp
G28 W ; home all without mesh bed level
G80 ; mesh bed leveling
G1 Y-3.0 F1000.0 ; go outside print area
G92 E0.0
G1 X60.0 E9.0  F1000.0 ; intro line
G1 X100.0 E12.5  F1000.0 ; intro line
G92 E0.0
M221 S95
M900 K30; Filament gcode
G21 ; set units to millimeters
G90 ; use absolute coordinates
M83 ; use relative distances for extrusion
;BEFORE_LAYER_CHANGE
G92 E0.0
;0.2


G1 E-0.80000 F2100.00000
G1 Z0.600 F10800.000
;AFTER_LAYER_CHANGE
;0.2
G1 X86.758 Y101.801
G1 Z0.200
G1 E0.80000 F2100.00000
M204 S1000
G1 F1800
G1 X87.486 Y100.446 E0.04825
G1 X88.386 Y99.351 E0.04443
G1 X119.899 Y67.741 E1.39950
G1 X120.691 Y67.115 E0.03164
G1 X122.010 Y66.406 E0.04697
G1 X123.428 Y65.981 E0.04639
G1 X124.892 Y65.880 E0.04601
G1 X126.479 Y66.085 E0.05018
G1 X127.805 Y66.511 E0.04368
G1 X150.218 Y75.403 E0.75604
G1 X151.492 Y76.074 E0.04512
G1 X152.673 Y77.046 E0.04796
G1 X153.554 Y78.093 E0.04291
G1 X154.134 Y79.181 E0.03865
G1 X163.296 Y102.478 E0.78492
G1 X163.677 Y103.740 E0.04131
G1 X163.808 Y105.038 E0.04093
G1 X163.643 Y106.774 E0.05467
G1 X163.233 Y108.125 E0.04426
G1 X153.633 Y130.322 E0.75827
G1 X153.015 Y131.439 E0.04004
G1 X152.238 Y132.405 E0.03886
G1 X151.281 Y133.196 E0.03891
G1 X149.807 Y134.003 E0.05270
G1 X128.032 Y143.555 E0.74555
G1 X126.564 Y144.004 E0.04812
G1 X125.068 Y144.120 E0.04705
G1 X123.454 Y143.899 E0.05108
G1 X122.051 Y143.446 E0.04624
G1 X99.604 Y133.846 E0.76546
G1 X98.476 Y133.263 E0.03981
G1 X97.204 Y132.267 E0.05067
G1 X96.392 Y131.277 E0.04014
G1 X95.647 Y129.834 E0.05090
G1 X86.733 Y107.658 E0.74939
G1 X86.306 Y106.163 E0.04876
G1 X86.191 Y104.738 E0.04482
G1 X86.362 Y103.144 E0.05027
G1 X86.741 Y101.859 E0.04201
G1 F8640
G1 X87.486 Y100.446 E-0.36892
G1 X88.386 Y99.351 E-0.32719
G1 X88.581 Y99.155 E-0.06390
G1 E-0.04000 F2100.00000
G1 Z0.800 F10800.000
G1 X134.134 Y102.220
G1 Z0.200
G1 E0.80000 F2100.00000
G1 F1800
G1 X134.618 Y102.579 E0.01889
G1 X134.986 Y102.725 E0.01241
G1 X136.229 Y103.154 E0.04123
G1 X137.377 Y103.704 E0.03990
G1 X138.058 Y104.108 E0.02482
G1 X138.494 Y104.394 E0.01634
G1 X139.825 Y105.401 E0.05234
G1 X140.594 Y105.952 E0.02968
G1 X141.559 Y106.498 E0.03475
G1 X142.510 Y106.885 E0.03220
G1 X143.051 Y107.032 E0.01759
G1 X143.416 Y107.102 E0.01163
G1 X143.795 Y107.137 E0.01196
G1 X144.236 Y107.147 E0.01382
G1 X144.700 Y107.105 E0.01459
G1 X145.180 Y107.029 E0.01524
G1 X145.680 Y106.882 E0.01634
G1 X146.195 Y106.687 E0.01727
G1 X147.138 Y106.149 E0.03405
G1 X147.595 Y105.833 E0.01742
G1 X148.771 Y104.930 E0.04648
G1 X149.437 Y104.349 E0.02773
G1 X151.032 Y102.836 E0.06893
G1 X151.475 Y102.371 E0.02012
G1 X152.206 Y101.727 E0.03056
G1 X152.959 Y101.185 E0.02909
G1 X153.482 Y100.902 E0.01865
G1 X153.775 Y100.767 E0.01010
G1 X154.393 Y100.537 E0.02067
G1 X154.713 Y100.447 E0.01043
G1 X155.392 Y100.334 E0.02158
G1 X155.750 Y100.308 E0.01126
G1 X156.319 Y100.341 E0.01788
G1 X156.914 Y100.419 E0.01880
G1 X157.256 Y100.505 E0.01105
G1 X158.069 Y100.788 E0.02699
G1 X158.693 Y101.142 E0.02250
G1 X159.068 Y101.394 E0.01417
G1 X159.576 Y101.834 E0.02107
G1 X159.848 Y102.104 E0.01203
G1 X160.134 Y102.461 E0.01434
G1 X160.377 Y102.808 E0.01329
G1 X160.504 Y103.037 E0.00821
G1 X160.701 Y103.465 E0.01476
G1 X160.886 Y103.995 E0.01759
G1 X160.954 Y104.283 E0.00929
G1 X161.010 Y104.646 E0.01152
G1 X161.032 Y105.260 E0.01926
G1 X160.984 Y105.873 E0.01928
G1 X160.867 Y106.470 E0.01908
G1 X160.674 Y107.045 E0.01901
G1 X160.403 Y107.576 E0.01869
G1 X160.055 Y108.073 E0.01904
G1 X159.851 Y108.309 E0.00977
G1 X159.671 Y108.493 E0.00807
G1 X159.211 Y108.857 E0.01839
G1 X158.698 Y109.130 E0.01822
G1 X158.048 Y109.346 E0.02149
G1 X157.530 Y109.437 E0.01648
G1 X157.727 Y109.407 E0.00624
G1 X158.205 Y109.273 E0.01557
G1 X158.498 Y109.149 E0.00999
G1 X158.954 Y108.861 E0.01689
G1 X159.396 Y108.496 E0.01799
G1 X159.816 Y108.049 E0.01921
G1 X160.172 Y107.535 E0.01961
G1 X160.450 Y107.002 E0.01886
G1 X160.648 Y106.481 E0.01747
G1 X160.779 Y105.965 E0.01670
G1 X160.853 Y105.384 E0.01837
G1 X160.858 Y104.927 E0.01433
G1 X160.794 Y104.409 E0.01636
G1 X160.715 Y104.119 E0.00941
G1 X160.533 Y103.641 E0.01606
G1 X160.311 Y103.203 E0.01540
G1 X160.064 Y102.851 E0.01347
G1 X159.776 Y102.496 E0.01433
G1 X159.399 Y102.149 E0.01606
G1 X158.990 Y101.816 E0.01655
G1 X158.523 Y101.522 E0.01730
G1 X158.022 Y101.251 E0.01784
G1 X157.213 Y100.976 E0.02681
G1 X156.973 Y100.912 E0.00778
G1 X156.602 Y100.864 E0.01172
G1 X155.921 Y100.833 E0.02138
G1 X155.513 Y100.890 E0.01294
G1 X154.923 Y101.029 E0.01901
G1 X154.106 Y101.356 E0.02757
G1 X153.402 Y101.705 E0.02463
G1 X153.062 Y101.914 E0.01253
G1 X152.721 Y102.143 E0.01285
G1 X152.063 Y102.679 E0.02662
G1 X150.052 Y104.494 E0.08495
G1 X148.509 Y105.925 E0.06599
G1 X147.846 Y106.475 E0.02701
G1 X147.280 Y106.900 E0.02217
G1 X146.295 Y107.533 E0.03672
G1 X145.800 Y107.802 E0.01766
G1 X145.339 Y108.029 E0.01612
G1 X144.851 Y108.227 E0.01650
G1 X144.392 Y108.386 E0.01525
G1 X143.930 Y108.499 E0.01489
G1 X143.470 Y108.583 E0.01468
G1 X143.025 Y108.622 E0.01399
G1 X142.518 Y108.639 E0.01591
G1 X141.551 Y108.548 E0.03044
G1 X141.008 Y108.439 E0.01739
G1 X140.370 Y108.259 E0.02077
G1 X139.688 Y108.001 E0.02285
G1 X137.945 Y107.235 E0.05970
G1 X137.205 Y106.967 E0.02468
G1 X136.663 Y106.800 E0.01779
G1 X136.004 Y106.718 E0.02084
G1 X135.434 Y106.722 E0.01785
G1 X134.801 Y106.855 E0.02028
G1 X134.467 Y106.995 E0.01135
G1 X134.173 Y107.183 E0.01094
G1 X133.972 Y107.468 E0.01096
G1 X133.861 Y107.825 E0.01171
G1 X133.954 Y108.193 E0.01192
G1 X134.134 Y108.495 E0.01102
G1 X134.821 Y109.182 E0.03045
G1 X135.358 Y109.780 E0.02520
G1 X138.124 Y113.373 E0.14219
G1 X138.816 Y114.163 E0.03290
G1 X140.060 Y115.483 E0.05688
G1 X140.876 Y116.245 E0.03499
G1 X141.461 Y116.740 E0.02406
G1 X143.384 Y118.194 E0.07558
G1 X144.360 Y118.752 E0.03526
G1 X145.579 Y119.412 E0.04344
G1 X147.274 Y120.211 E0.05875
G1 X147.793 Y120.470 E0.01822
G1 X148.237 Y120.723 E0.01600
G1 X148.837 Y121.091 E0.02209
G1 X149.751 Y121.736 E0.03506
G1 X150.376 Y122.286 E0.02609
G1 X150.539 Y122.470 E0.00773
G1 X150.782 Y122.786 E0.01248
G1 X151.110 Y123.378 E0.02121
G1 X151.349 Y123.991 E0.02064
G1 X151.450 Y124.341 E0.01143
G1 X151.540 Y124.759 E0.01341
G1 X151.625 Y125.329 E0.01807
G1 X151.674 Y125.863 E0.01680
G1 X151.692 Y126.706 E0.02645
G1 X151.668 Y127.179 E0.01485
G1 X151.582 Y127.727 E0.01738
G1 X151.507 Y128.068 E0.01097
G1 X151.348 Y128.581 E0.01682
G1 X151.106 Y129.174 E0.02008
G1 X150.860 Y129.654 E0.01693
G1 X150.439 Y130.265 E0.02328
G1 X150.269 Y130.448 E0.00783
G1 X149.959 Y130.730 E0.01315
G1 X149.356 Y131.126 E0.02261
G1 X149.019 Y131.305 E0.01196
G1 X148.666 Y131.472 E0.01226
G1 X147.904 Y131.723 E0.02514
G1 X147.122 Y131.828 E0.02473
G1 X146.826 Y131.833 E0.00930
G1 X146.344 Y131.811 E0.01513
G1 X145.697 Y131.687 E0.02064
G1 X145.270 Y131.522 E0.01437
G1 X144.838 Y131.305 E0.01514
G1 X144.405 Y131.035 E0.01599
G1 X144.195 Y130.878 E0.00823
G1 X143.794 Y130.537 E0.01651
G1 X143.551 Y130.270 E0.01133
G1 X143.327 Y129.991 E0.01121
G1 X143.200 Y129.790 E0.00746
G1 X143.001 Y129.417 E0.01324
G1 X142.838 Y128.948 E0.01558
G1 X142.968 Y129.256 E0.01050
G1 X143.322 Y129.845 E0.02154
G1 X143.788 Y130.412 E0.02302
G1 X144.375 Y130.914 E0.02420
G1 X145.005 Y131.303 E0.02324
G1 X145.604 Y131.547 E0.02026
G1 X146.245 Y131.679 E0.02052
G1 X146.922 Y131.717 E0.02128
G1 X147.650 Y131.638 E0.02296
G1 X148.401 Y131.408 E0.02462
G1 X149.108 Y131.071 E0.02456
G1 X149.701 Y130.680 E0.02227
G1 X150.209 Y130.190 E0.02212
G1 X150.490 Y129.810 E0.01481
G1 X150.642 Y129.579 E0.00868
G1 X150.861 Y129.162 E0.01478
G1 X151.090 Y128.601 E0.01900
G1 X151.202 Y128.236 E0.01197
G1 X151.320 Y127.500 E0.02335
G1 X151.327 Y126.678 E0.02579
G1 X151.246 Y125.893 E0.02474
G1 X151.108 Y125.259 E0.02033
G1 X150.891 Y124.670 E0.01970
G1 X150.608 Y124.088 E0.02029
G1 X150.362 Y123.719 E0.01391
G1 X150.158 Y123.462 E0.01029
G1 X149.600 Y122.969 E0.02333
G1 X148.848 Y122.517 E0.02753
G1 X148.373 Y122.288 E0.01651
G1 X147.865 Y122.064 E0.01743
G1 X146.738 Y121.671 E0.03742
G1 X144.949 Y121.235 E0.05774
G1 X144.234 Y121.041 E0.02322
G1 X143.469 Y120.780 E0.02533
G1 X141.991 Y120.208 E0.04969
G1 X140.967 Y119.768 E0.03496
G1 X139.196 Y118.925 E0.06148
G1 X137.616 Y118.093 E0.05599
G1 X136.054 Y117.236 E0.05587
G1 X135.531 Y116.983 E0.01823
G1 X135.021 Y116.769 E0.01734
G1 X134.488 Y116.647 E0.01712
G1 X133.985 Y116.581 E0.01593
G1 X133.457 Y116.654 E0.01669
G1 X132.998 Y116.791 E0.01504
G1 X132.591 Y117.039 E0.01493
G1 X132.231 Y117.337 E0.01465
G1 X131.823 Y117.839 E0.02028
G1 X131.664 Y118.079 E0.00902
G1 X131.397 Y118.577 E0.01772
G1 X130.605 Y120.284 E0.05902
G1 X130.299 Y120.751 E0.01750
G1 X129.893 Y121.164 E0.01814
G1 X129.392 Y121.528 E0.01944
G1 X129.173 Y121.650 E0.00786
G1 X128.849 Y121.812 E0.01135
G1 X128.289 Y122.040 E0.01895
G1 X127.795 Y122.203 E0.01630
G1 X127.566 Y122.260 E0.00741
G1 X126.358 Y122.486 E0.03852
G1 X125.760 Y122.686 E0.01978
G1 X125.368 Y122.862 E0.01347
G1 X125.048 Y123.218 E0.01501
G1 X124.831 Y123.646 E0.01504
G1 X124.761 Y124.034 E0.01238
G1 X124.736 Y124.493 E0.01439
G1 X124.791 Y125.192 E0.02201
G1 X124.957 Y125.910 E0.02310
G1 X125.055 Y126.209 E0.00985
G1 X125.377 Y126.967 E0.02581
G1 X125.640 Y127.465 E0.01767
G1 X126.055 Y128.172 E0.02571
G1 X126.660 Y129.110 E0.03501
G1 X127.030 Y129.633 E0.02008
G1 X127.476 Y130.156 E0.02154
G1 X128.560 Y131.274 E0.04884
G1 X129.092 Y131.866 E0.02495
G1 X129.339 Y132.167 E0.01220
G1 X129.777 Y132.806 E0.02431
G1 X129.944 Y133.144 E0.01182
G1 X130.083 Y133.482 E0.01145
G1 X130.181 Y133.874 E0.01267
G1 X130.263 Y134.356 E0.01534
G1 X130.289 Y134.778 E0.01325
G1 X130.295 Y135.367 E0.01846
G1 X130.241 Y136.071 E0.02214
G1 X130.169 Y136.640 E0.01800
G1 X129.991 Y137.402 E0.02452
G1 X129.836 Y137.898 E0.01630
G1 X129.494 Y138.580 E0.02392
G1 X129.257 Y138.972 E0.01437
G1 X128.707 Y139.659 E0.02760
G1 X128.517 Y139.869 E0.00887
G1 X128.127 Y140.229 E0.01665
G1 X127.744 Y140.544 E0.01555
G1 X127.201 Y140.874 E0.01992
G1 X126.941 Y141.001 E0.00907
G1 X126.342 Y141.206 E0.01983
G1 X126.054 Y141.275 E0.00931
G1 X125.418 Y141.341 E0.02004
G1 X125.095 Y141.344 E0.01013
G1 X124.432 Y141.263 E0.02092
G1 X124.071 Y141.192 E0.01153
G1 X123.466 Y141.012 E0.01979
G1 X123.138 Y140.891 E0.01096
G1 X122.774 Y140.713 E0.01273
G1 X122.457 Y140.532 E0.01143
G1 X121.909 Y140.098 E0.02192
G1 X121.647 Y139.836 E0.01161
G1 X121.292 Y139.408 E0.01745
G1 X121.088 Y139.101 E0.01154
G1 X120.791 Y138.478 E0.02164
G1 X120.591 Y137.778 E0.02283
G1 X120.492 Y137.038 E0.02342
G1 X120.492 Y136.674 E0.01139
G1 X120.520 Y136.295 E0.01193
G1 X120.595 Y136.010 E0.00922
G1 X120.791 Y135.433 E0.01912
G1 X121.017 Y135.028 E0.01456
G1 X121.219 Y134.723 E0.01145
G1 X121.628 Y134.224 E0.02023
G1 X121.301 Y134.750 E0.01942
G1 X120.948 Y135.557 E0.02763
G1 X120.735 Y136.399 E0.02721
G1 X120.690 Y137.201 E0.02520
G1 X120.776 Y137.883 E0.02155
G1 X120.980 Y138.474 E0.01961
G1 X121.288 Y138.970 E0.01830
G1 X121.699 Y139.462 E0.02010
G1 X122.200 Y139.914 E0.02117
G1 X122.799 Y140.297 E0.02230
G1 X123.227 Y140.494 E0.01475
G1 X123.713 Y140.666 E0.01619
G1 X124.306 Y140.813 E0.01914
G1 X125.160 Y140.891 E0.02689
G1 X125.496 Y140.871 E0.01055
G1 X126.073 Y140.800 E0.01823
G1 X126.529 Y140.675 E0.01484
G1 X126.980 Y140.516 E0.01497
G1 X127.411 Y140.288 E0.01529
G1 X127.832 Y140.019 E0.01567
G1 X128.309 Y139.588 E0.02016
G1 X128.572 Y139.303 E0.01215
G1 X128.931 Y138.751 E0.02065
G1 X129.124 Y138.397 E0.01264
G1 X129.391 Y137.671 E0.02427
G1 X129.474 Y137.393 E0.00909
G1 X129.594 Y136.587 E0.02556
G1 X129.619 Y135.938 E0.02034
G1 X129.604 Y135.479 E0.01441
G1 X129.496 Y134.743 E0.02332
G1 X129.388 Y134.400 E0.01126
G1 X129.253 Y134.068 E0.01126
G1 X128.894 Y133.505 E0.02093
G1 X128.431 Y132.979 E0.02197
G1 X128.150 Y132.696 E0.01250
G1 X127.286 Y131.901 E0.03681
G1 X125.312 Y130.283 E0.08004
G1 X124.713 Y129.744 E0.02526
G1 X124.050 Y129.045 E0.03021
G1 X123.456 Y128.335 E0.02903
G1 X122.911 Y127.626 E0.02805
G1 X122.596 Y127.171 E0.01734
G1 X122.311 Y126.717 E0.01681
G1 X122.064 Y126.268 E0.01606
G1 X121.682 Y125.424 E0.02906
G1 X121.480 Y124.904 E0.01750
G1 X121.175 Y124.024 E0.02919
G1 X120.961 Y123.260 E0.02488
G1 X120.898 Y122.998 E0.00844
G1 X120.799 Y122.404 E0.01887
G1 X120.572 Y121.549 E0.02777
G1 X120.293 Y121.147 E0.01532
G1 X120.096 Y120.926 E0.00930
G1 X119.720 Y120.581 E0.01597
G1 X119.580 Y120.403 E0.00712
G1 X119.437 Y120.192 E0.00798
G1 X119.263 Y119.860 E0.01175
G1 X118.851 Y118.876 E0.03347
G1 X118.578 Y118.082 E0.02631
G1 X118.149 Y116.689 E0.04571
G1 X117.909 Y116.139 E0.01880
G1 X117.802 Y115.951 E0.00680
G1 X117.550 Y115.626 E0.01288
G1 X117.148 Y115.234 E0.01760
G1 X116.658 Y114.921 E0.01823
G1 X116.135 Y114.642 E0.01857
G1 X115.596 Y114.430 E0.01819
G1 X115.050 Y114.253 E0.01800
G1 X114.501 Y114.149 E0.01750
G1 X113.905 Y114.091 E0.01878
G1 X113.363 Y114.101 E0.01699
G1 X112.503 Y114.180 E0.02707
G1 X112.041 Y114.247 E0.01464
G1 X111.224 Y114.420 E0.02619
G1 X110.423 Y114.652 E0.02615
G1 X109.600 Y114.976 E0.02773
G1 X108.741 Y115.430 E0.03047
G1 X108.323 Y115.721 E0.01598
G1 X107.918 Y116.042 E0.01617
G1 X107.581 Y116.410 E0.01566
G1 X107.275 Y116.814 E0.01590
G1 X107.050 Y117.282 E0.01626
G1 X106.872 Y117.781 E0.01661
G1 X106.779 Y118.343 E0.01787
G1 X106.727 Y118.914 E0.01797
G1 X106.738 Y119.505 E0.01854
G1 X106.772 Y120.034 E0.01662
G1 X106.851 Y120.582 E0.01735
G1 X107.418 Y123.441 E0.09141
G1 X107.568 Y124.675 E0.03896
G1 X107.613 Y125.897 E0.03834
G1 X107.550 Y126.987 E0.03425
G1 X107.384 Y127.779 E0.02535
G1 X107.267 Y128.109 E0.01098
G1 X107.135 Y128.428 E0.01083
G1 X106.809 Y129.056 E0.02219
G1 X106.374 Y129.664 E0.02344
G1 X106.097 Y129.961 E0.01274
G1 X105.768 Y130.279 E0.01433
G1 X105.356 Y130.613 E0.01666
G1 X104.785 Y131.001 E0.02162
G1 X104.344 Y131.246 E0.01583
G1 X103.645 Y131.518 E0.02350
G1 X103.367 Y131.582 E0.00897
G1 X102.975 Y131.636 E0.01238
G1 X102.295 Y131.628 E0.02135
G1 X101.502 Y131.528 E0.02505
G1 X101.095 Y131.423 E0.01318
G1 X100.714 Y131.301 E0.01255
G1 X100.422 Y131.168 E0.01007
G1 X99.991 Y130.936 E0.01533
G1 X99.370 Y130.490 E0.02398
G1 X99.174 Y130.311 E0.00831
G1 X98.907 Y130.028 E0.01223
G1 X98.550 Y129.494 E0.02013
G1 X98.208 Y128.762 E0.02534
G1 X98.082 Y128.379 E0.01261
G1 X97.982 Y128.003 E0.01221
G1 X97.905 Y127.289 E0.02252
G1 X97.960 Y126.630 E0.02073
G1 X98.048 Y126.303 E0.01062
G1 X98.017 Y126.497 E0.00615
G1 X97.986 Y127.001 E0.01583
G1 X98.020 Y127.662 E0.02077
G1 X98.051 Y127.906 E0.00768
G1 X98.255 Y128.647 E0.02412
G1 X98.561 Y129.330 E0.02345
G1 X98.918 Y129.862 E0.02011
G1 X99.353 Y130.311 E0.01959
G1 X99.917 Y130.743 E0.02228
G1 X100.582 Y131.090 E0.02353
G1 X101.318 Y131.314 E0.02412
G1 X102.118 Y131.432 E0.02536
G1 X102.818 Y131.434 E0.02194
G1 X103.493 Y131.314 E0.02151
G1 X103.876 Y131.180 E0.01272
G1 X104.223 Y131.031 E0.01182
G1 X104.832 Y130.672 E0.02216
G1 X105.386 Y130.205 E0.02273
G1 X105.632 Y129.933 E0.01151
G1 X105.858 Y129.654 E0.01126
G1 X106.219 Y129.081 E0.02121
G1 X106.511 Y128.427 E0.02247
G1 X106.695 Y127.792 E0.02073
G1 X106.747 Y127.452 E0.01078
G1 X106.793 Y127.010 E0.01395
G1 X106.805 Y126.460 E0.01724
G1 X106.796 Y125.948 E0.01605
G1 X106.742 Y125.313 E0.01998
G1 X106.679 Y124.791 E0.01650
